static/img/kroki/78ba70e85e5a79666549586d0046e4ff.svg

<?xml version="1.0" encoding="us-ascii" standalone="no"?><svg xmlns="http://www.w3.org/2000/svg" xmlns:xlink="http://www.w3.org/1999/xlink" contentStyleType="text/css" height="374px" preserveAspectRatio="none" style="width:314px;height:374px;" version="1.1" viewBox="0 0 314 374" width="314px" zoomAndPan="magnify"><defs/><g><!--class group--><g id="elem_group"><rect codeLine="23" fill="#3D176E" height="39.7891" id="group" rx="2.5" ry="2.5" style="stroke:#000D19;stroke-width:0.5;" width="90" x="205.5" y="167.79"/><ellipse cx="220.5" cy="187.6845" fill="#ADD1B2" rx="11" ry="11" style="stroke:#181818;stroke-width:1.0;"/><path d="M223.4688,193.3252 Q222.8906,193.622 222.25,193.7627 Q221.6094,193.9189 220.9063,193.9189 Q218.4063,193.9189 217.0781,192.2783 Q215.7656,190.622 215.7656,187.497 Q215.7656,184.372 217.0781,182.7158 Q218.4063,181.0595 220.9063,181.0595 Q221.6094,181.0595 222.25,181.2158 Q222.9063,181.372 223.4688,181.6689 L223.4688,184.3877 Q222.8438,183.8095 222.25,183.5439 Q221.6563,183.2627 221.0313,183.2627 Q219.6875,183.2627 219,184.3408 Q218.3125,185.4033 218.3125,187.497 Q218.3125,189.5908 219,190.6689 Q219.6875,191.7314 221.0313,191.7314 Q221.6563,191.7314 222.25,191.4658 Q222.8438,191.1845 223.4688,190.6064 L223.4688,193.3252 Z " fill="#000000"/><text fill="#D9B8FF" font-family="Helvetica" font-size="17" lengthAdjust="spacing" textLength="48" x="239.5" y="193.5698">group</text></g><!--class resource--><g id="elem_resource"><rect codeLine="26" fill="#3D176E" height="39.7891" id="resource" rx="2.5" ry="2.5" style="stroke:#000D19;stroke-width:0.5;" width="113" x="194" y="7"/><ellipse cx="209" cy="26.8945" fill="#ADD1B2" rx="11" ry="11" style="stroke:#181818;stroke-width:1.0;"/><path d="M211.9688,32.5352 Q211.3906,32.832 210.75,32.9727 Q210.1094,33.1289 209.4063,33.1289 Q206.9063,33.1289 205.5781,31.4883 Q204.2656,29.832 204.2656,26.707 Q204.2656,23.582 205.5781,21.9258 Q206.9063,20.2695 209.4063,20.2695 Q210.1094,20.2695 210.75,20.4258 Q211.4063,20.582 211.9688,20.8789 L211.9688,23.5977 Q211.3438,23.0195 210.75,22.7539 Q210.1563,22.4727 209.5313,22.4727 Q208.1875,22.4727 207.5,23.5508 Q206.8125,24.6133 206.8125,26.707 Q206.8125,28.8008 207.5,29.8789 Q208.1875,30.9414 209.5313,30.9414 Q210.1563,30.9414 210.75,30.6758 Q211.3438,30.3945 211.9688,29.8164 L211.9688,32.5352 Z " fill="#000000"/><text fill="#D9B8FF" font-family="Helvetica" font-size="17" lengthAdjust="spacing" textLength="71" x="228" y="32.7798">resource</text></g><!--class slack_resource--><g id="elem_slack_resource"><rect codeLine="29" fill="#3D176E" height="39.7891" id="slack_resource" rx="2.5" ry="2.5" style="stroke:#000D19;stroke-width:0.5;" width="163" x="7" y="167.79"/><ellipse cx="22" cy="187.6845" fill="#ADD1B2" rx="11" ry="11" style="stroke:#181818;stroke-width:1.0;"/><path d="M24.9688,193.3252 Q24.3906,193.622 23.75,193.7627 Q23.1094,193.9189 22.4063,193.9189 Q19.9063,193.9189 18.5781,192.2783 Q17.2656,190.622 17.2656,187.497 Q17.2656,184.372 18.5781,182.7158 Q19.9063,181.0595 22.4063,181.0595 Q23.1094,181.0595 23.75,181.2158 Q24.4063,181.372 24.9688,181.6689 L24.9688,184.3877 Q24.3438,183.8095 23.75,183.5439 Q23.1563,183.2627 22.5313,183.2627 Q21.1875,183.2627 20.5,184.3408 Q19.8125,185.4033 19.8125,187.497 Q19.8125,189.5908 20.5,190.6689 Q21.1875,191.7314 22.5313,191.7314 Q23.1563,191.7314 23.75,191.4658 Q24.3438,191.1845 24.9688,190.6064 L24.9688,193.3252 Z " fill="#000000"/><text fill="#D9B8FF" font-family="Helvetica" font-size="17" lengthAdjust="spacing" textLength="121" x="41" y="193.5698">slack_resource</text></g><!--class slack_usergroup--><g id="elem_slack_usergroup"><rect codeLine="32" fill="#3D176E" height="39.7891" id="slack_usergroup" rx="2.5" ry="2.5" style="stroke:#000D19;stroke-width:0.5;" width="176" x="35.5" y="328.58"/><ellipse cx="50.5" cy="348.4745" fill="#ADD1B2" rx="11" ry="11" style="stroke:#181818;stroke-width:1.0;"/><path d="M53.4688,354.1152 Q52.8906,354.412 52.25,354.5527 Q51.6094,354.7089 50.9063,354.7089 Q48.4063,354.7089 47.0781,353.0683 Q45.7656,351.412 45.7656,348.287 Q45.7656,345.162 47.0781,343.5058 Q48.4063,341.8495 50.9063,341.8495 Q51.6094,341.8495 52.25,342.0058 Q52.9063,342.162 53.4688,342.4589 L53.4688,345.1777 Q52.8438,344.5995 52.25,344.3339 Q51.6563,344.0527 51.0313,344.0527 Q49.6875,344.0527 49,345.1308 Q48.3125,346.1933 48.3125,348.287 Q48.3125,350.3808 49,351.4589 Q49.6875,352.5214 51.0313,352.5214 Q51.6563,352.5214 52.25,352.2558 Q52.8438,351.9745 53.4688,351.3964 L53.4688,354.1152 Z " fill="#000000"/><text fill="#D9B8FF" font-family="Helvetica" font-size="17" lengthAdjust="spacing" textLength="134" x="69.5" y="354.3598">slack_usergroup</text></g><!--reverse link resource to group--><g id="link_resource_group"><path codeLine="35" d="M250.5,65.05 C250.5,95.57 250.5,136.9 250.5,167.46 " fill="none" id="resource-backto-group" style="stroke:#FFAF37;stroke-width:2.0;"/><polygon fill="none" points="250.5,47.05,244.5,65.05,256.5,65.05,250.5,47.05" style="stroke:#FFAF37;stroke-width:2.0;"/></g><!--reverse link group to slack_usergroup--><g id="link_group_slack_usergroup"><path codeLine="36" d="M223.9372,221.897 C199.5272,252.417 163.32,297.69 138.87,328.25 " fill="none" id="group-backto-slack_usergroup" style="stroke:#FFAF37;stroke-width:2.0;"/><polygon fill="none" points="235.18,207.84,219.2515,218.1494,228.6228,225.6446,235.18,207.84" style="stroke:#FFAF37;stroke-width:2.0;"/></g><!--reverse link slack_resource to slack_usergroup--><g id="link_slack_resource_slack_usergroup"><path codeLine="37" d="M96.5961,225.4177 C103.3261,255.9377 112.53,297.69 119.26,328.25 " fill="none" id="slack_resource-backto-slack_usergroup" style="stroke:#FFAF37;stroke-width:2.0;"/><polygon fill="none" points="92.72,207.84,90.7368,226.7097,102.4553,224.1257,92.72,207.84" style="stroke:#FFAF37;stroke-width:2.0;"/></g><!--SRC=[XP3DReCm48JlF8Mbd96WKKkGUacGglOILKtlbS7hO04ssZMDqfztRoXfv9gGN6S-pyowL08ODAtTimQQ7902gfHkEVA6BH7DBZErGJQJaijvufiFHjkhm9etm1wXVWUh2kuJhwKgAWr4xCQnLhoejcWwBOPuYrpJmG9j7IghET7IMbHvPy4P8z9y8QLF-g6pkOYJEnXX1WNW4OcYICIfZrojkdZtYTYe3s2n-sbhOs4qSrJnIrrSsHFEoD6XV_xancSkXD9RTkjeByCcr83_z4t9XTdrjEGrkJLa0S7OVGlPw2f85q8cP-6dAJWe-gzZlTMopo3uFWe8P3eimDMeFeIyJJiT0Jf19_3-Amp3eI8O_47nNWLU_dde1m00]--></g></svg>

<svg xmlns="http://www.w3.org/2000/svg" width="314" height="374" viewBox="0 0 314 374"><rect width="90" height="39.789" x="205.5" y="167.79" fill="#3D176E" rx="2.5" ry="2.5" style="stroke:#000d19;stroke-width:.5"/><circle cx="220.5" cy="187.685" r="11" fill="#ADD1B2" style="stroke:#181818;stroke-width:1"/><path d="M223.469 193.325q-.578.297-1.219.438-.64.156-1.344.156-2.5 0-3.828-1.64-1.312-1.657-1.312-4.782t1.312-4.781q1.328-1.656 3.828-1.656.703 0 1.344.156.656.156 1.219.453v2.719q-.625-.578-1.219-.844-.594-.281-1.219-.281-1.344 0-2.031 1.078-.687 1.062-.687 3.156t.687 3.172q.688 1.062 2.031 1.062.625 0 1.219-.265.594-.281 1.219-.86z"/><text x="239.5" y="193.57" fill="#D9B8FF" font-family="Helvetica" font-size="17" textLength="48">group</text><rect width="113" height="39.789" x="194" y="7" fill="#3D176E" rx="2.5" ry="2.5" style="stroke:#000d19;stroke-width:.5"/><circle cx="209" cy="26.895" r="11" fill="#ADD1B2" style="stroke:#181818;stroke-width:1"/><path d="M211.969 32.535q-.578.297-1.219.438-.64.156-1.344.156-2.5 0-3.828-1.64-1.312-1.657-1.312-4.782t1.312-4.781q1.328-1.656 3.828-1.656.703 0 1.344.156.656.156 1.219.453v2.719q-.625-.578-1.219-.844-.594-.281-1.219-.281-1.344 0-2.031 1.078-.687 1.062-.687 3.156t.687 3.172q.688 1.062 2.031 1.062.625 0 1.219-.265.594-.281 1.219-.86z"/><text x="228" y="32.78" fill="#D9B8FF" font-family="Helvetica" font-size="17" textLength="71">resource</text><rect width="163" height="39.789" x="7" y="167.79" fill="#3D176E" rx="2.5" ry="2.5" style="stroke:#000d19;stroke-width:.5"/><circle cx="22" cy="187.685" r="11" fill="#ADD1B2" style="stroke:#181818;stroke-width:1"/><path d="M24.969 193.325q-.578.297-1.219.438-.64.156-1.344.156-2.5 0-3.828-1.64-1.312-1.657-1.312-4.782t1.312-4.781q1.328-1.656 3.828-1.656.703 0 1.344.156.656.156 1.219.453v2.719q-.625-.578-1.219-.844-.594-.281-1.219-.281-1.343 0-2.031 1.078-.687 1.062-.687 3.156t.687 3.172q.688 1.062 2.031 1.062.625 0 1.219-.265.594-.281 1.219-.86z"/><text x="41" y="193.57" fill="#D9B8FF" font-family="Helvetica" font-size="17" textLength="121">slack_resource</text><rect width="176" height="39.789" x="35.5" y="328.58" fill="#3D176E" rx="2.5" ry="2.5" style="stroke:#000d19;stroke-width:.5"/><circle cx="50.5" cy="348.474" r="11" fill="#ADD1B2" style="stroke:#181818;stroke-width:1"/><path d="M53.469 354.115q-.578.297-1.219.438-.64.156-1.344.156-2.5 0-3.828-1.64-1.312-1.657-1.312-4.782t1.312-4.781q1.328-1.656 3.828-1.656.703 0 1.344.156.656.156 1.219.453v2.719q-.625-.579-1.219-.844-.594-.281-1.219-.281-1.343 0-2.031 1.078-.687 1.062-.687 3.156t.687 3.172q.688 1.062 2.031 1.062.625 0 1.219-.265.594-.281 1.219-.86z"/><text x="69.5" y="354.36" fill="#D9B8FF" font-family="Helvetica" font-size="17" textLength="134">slack_usergroup</text><path fill="none" d="M250.5 65.05v102.41m0-120.41-6 18h12z" style="stroke:#ffaf37;stroke-width:2"/><g fill="none"><path d="M223.937 221.897c-24.41 30.52-60.617 75.793-85.067 106.353" style="stroke:#ffaf37;stroke-width:2"/><path d="m235.18 207.84-15.929 10.31 9.372 7.495z" style="stroke:#ffaf37;stroke-width:2"/></g><path fill="none" d="M96.596 225.418c6.73 30.52 15.934 72.272 22.664 102.832M92.72 207.84l-1.983 18.87 11.718-2.584z" style="stroke:#ffaf37;stroke-width:2"/></svg>
